X:1
T:You May Have the Joy-Bells
T:You May Have the Joy-Bells
T:William James Kirkpatrick
T:J. Edwin  Ruark, 1899
T:Public Domain Courtesy of the Cyber Hymnal™
T:Public Domain Courtesy of the Cyber Hymnal™
C:William James Kirkpatrick
Z:Public Domain
Z:Courtesy of the Cyber Hymnal™
%%score ( 1 2 ) ( 3 4 )
L:1/8
Q:1/4=100
M:4/4
K:Ab
V:1 treble 
V:2 treble 
V:3 bass 
V:4 bass 
V:1
 [Ec]>[DB] [CA]>[DB] [Ec]2 [CE]2 | [DF]>[D=E] [DF]>[DG] [_EA]4 | %2
w: 1.~You may have the joy- bells|ring- ing in your heart,|
w: 2.~Love of Je- sus in its|full- ness you may know;|
w: 3.~You will meet with tri- als|as you jour- ney home;|
w: 4.~Let your life speak well of|Je- sus ev- ery day;|
 [EG]>[EA] [EB]>[Ec] [Ed]>[Ec] [EB]>[EA] | [EG]2 A2 [GB]4 | [Ec]>[Fd] [Ec]>[DB] [CA]>[EG] [DF]2 | %5
w: And a peace that from you nev- er|will de- part;|Walk the straight and nar- row way,|
w: And this love to those a- round you|sweet- ly show;|Words of kind- ness al- ways say;|
w: Grace suf- fi- cient He will give to|o- ver- come;|Though un- seen by mor- tal eye,|
w: Own His right to ev- ery ser- vice|you can pay;|Sin- ners you can help to win|
 [=DB]>[Dc] [DB]>[DA] [DG]>[DF] E2 | E>[EF] [EG]>[EA] [EB]2 !fermata![Ge]2 | %7
w: Live for Je- sus ev- ery day,|He will keep the joy- bells|
w: Deeds of mer- cy do each day,|Then He’ll keep the joy- bells|
w: He is with you ev- er nigh,|And He’ll keep the joy- bells|
w: If your life is pure and clean,|And you keep the joy- bells|
 [Ec]<[Fd] [Gc]>[EB] [EA]4 ||"^Refrain" [Ee]6 [Ec]2 | [EA]<[EA] [EA]>[EB] [Ac]4 | [GB]6 [Ge]2 | %11
w: ring- ing in your heart.||||
w: ring- ing in your heart.|Joy- bells|ring- ing in your heart,|Joy- bells|
w: ring- ing in your heart.||||
w: ring- ing in your heart.||||
 [A=d]<[Ad] [Ac]>[Ad] [Ge]4 | e>d c>B A>G F2 | d>c B>A G>F E2 x | %14
w: |||
w: ring- ing in your heart;|Take the Sav- ior here be- low|With you ev- ery- where you go;|
w: |||
w: |||
 E>[EF] [EG]>[EA] [EB]2 !fermata![Ge]2 | [Ec]<[Fd] [Gc]>[EB] [EA]4 |] %16
w: ||
w: He will keep the joy- bells|ring- ing in your heart.|
w: ||
w: ||
V:2
 x8 | x8 | x8 | x2 (EA) x4 | x8 | x6 E2 | E3/2 x13/2 | x8 || x8 | x8 | x8 | x8 | e>d c>B A>G F2 | %13
 d>c B>A G>F E3 | E3/2 x13/2 | x8 |] %16
V:3
 [A,,A,]>[A,,A,] [A,,A,]>[A,,A,] [A,,A,]2 [A,,A,]2 | [D,A,]>[D,G,] [D,A,]>[D,D] [A,,C]4 | %2
w: ~ ~ ~ ~ ~ ~|~ ~ ~ ~ ~|
 [E,B,]>[E,C] [E,D]>[E,A,] [E,B,]>[E,A,] [E,G,]>[E,C] | [E,B,]2 [E,C]2 [E,D]4 | %4
w: ~ ~ ~ ~ ~ ~ ~ ~|~ ~ ~|
 [A,,A,]>[A,,A,] [A,,A,]>[A,,A,] [A,,A,]>[A,,A,] [D,A,]2 | %5
w: ~ ~ ~ ~ ~ ~ ~|
 [B,,A,]>[B,,A,] [B,,A,]>[B,,A,] [B,,A,]>[B,,A,] [E,G,]2 | %6
w: ~ ~ ~ ~ ~ ~ ~|
 [E,G,]>[E,A,] [E,B,]>[F,B,] [G,B,]2 !fermata![E,B,]2 | A,<A, [E,D]>[E,D] [A,,A,C]4 || %8
w: ~ ~ ~ ~ ~ ~|~ ~ ~ ~ ~|
 [A,C]<[A,C] [A,C]>[A,C] [A,C]2 z2 | [A,C]<[A,C] [A,C]>[A,D] [A,E]4 | %10
w: Ring- ing in your heart,|~ ~ ~ ~ ~|
 [E,E]>[E,E] [E,E]>[E,E] [E,E]2 [E,B,]2 | [F,B,]<[F,B,] [B,,B,]>[B,,B,] [E,B,]4 | %12
w: You may have the joy- bells||
 E>D C>B, A,>G, F,2 | D>C B,>A, G,>F, E,2 x | %14
w: ||
 [E,G,]>[E,A,] [E,B,]>[F,B,] [G,B,]2 !fermata![E,B,]2 | A,<A, [E,D]>[E,D] [A,,A,C]4 |] %16
w: ||
V:4
 x8 | x8 | x8 | x8 | x8 | x8 | x8 | A,<A, x6 || x8 | x8 | x8 | x8 | E>D C>B, A,>G, F,2 | %13
 D>C B,>A, G,>F, E,2 x | x8 | A,<A, x6 |] %16

